icons/matlab/matlab-plain.svg

<?xml version="1.0" encoding="UTF-8"?>
<svg xmlns="http://www.w3.org/2000/svg" xmlns:xlink="http://www.w3.org/1999/xlink" width="128px" height="128px" viewBox="0 0 128 128" version="1.1">
<g id="surface1">
<path style=" stroke:none;fill-rule:nonzero;fill:rgb(0%,0%,0%);fill-opacity:1;" d="M 123.964844 91.902344 C 116.71875 73.605469 110.703125 54.84375 103.78125 36.425781 C 100.726562 28.585938 97.734375 20.679688 93.566406 13.34375 C 91.910156 10.710938 90.328125 7.816406 87.613281 6.128906 C 86.925781 5.695312 86.15625 5.511719 85.390625 5.523438 C 84.121094 5.550781 82.855469 6.117188 81.886719 6.9375 C 78.242188 9.824219 76.082031 14.019531 73.660156 17.886719 C 69.382812 25.058594 64.871094 32.574219 57.71875 37.234375 C 54.359375 39.605469 49.957031 39.863281 46.71875 42.40625 C 42.289062 45.746094 39.277344 50.484375 35.644531 54.589844 C 34.816406 55.578125 33.535156 55.972656 32.417969 56.507812 C 21.578125 60.929688 10.738281 65.335938 0 69.980469 C 9.089844 77.011719 18.777344 83.269531 28.050781 90.058594 C 30.59375 89.554688 33.148438 88.511719 35.769531 88.976562 C 39.929688 90.277344 42.367188 94.261719 44.273438 97.90625 C 48.148438 105.847656 50.949219 114.230469 54.085938 122.476562 C 59.332031 122.101562 64.054688 119.398438 68.113281 116.21875 C 75.921875 109.894531 81.871094 101.71875 88.417969 94.171875 C 91.558594 90.871094 94.757812 86.941406 99.46875 86.023438 C 104.230469 84.871094 109.332031 86.578125 112.863281 89.859375 C 117.820312 94.289062 122.207031 99.410156 128 102.800781 C 127.222656 98.964844 125.355469 95.523438 123.964844 91.902344 Z M 42.960938 79.011719 C 38.390625 81.714844 33.535156 83.941406 28.785156 86.300781 C 21.328125 81.304688 14.0625 76.011719 6.734375 70.835938 C 16.613281 66.507812 26.644531 62.488281 36.652344 58.449219 C 41.398438 62.152344 46.289062 65.671875 51.035156 69.375 C 48.804688 72.9375 46.121094 76.246094 42.960938 79.011719 Z M 53.128906 66.597656 C 48.414062 63.058594 43.640625 59.609375 39 55.976562 C 41.976562 51.921875 45.238281 48 49.140625 44.804688 C 51.726562 43.148438 54.882812 42.6875 57.566406 41.195312 C 63.933594 38.015625 68.277344 32.183594 72.425781 26.613281 C 67.109375 40.417969 61.433594 54.277344 53.128906 66.597656 Z M 53.128906 66.597656 "/>
</g>
</svg>

<svg xmlns="http://www.w3.org/2000/svg" viewBox="0 0 128 128"><path d="M123.965 91.902c-7.246-18.297-13.262-37.058-20.184-55.476-3.054-7.84-6.047-15.746-10.215-23.082-1.656-2.633-3.238-5.528-5.953-7.215a4.013 4.013 0 00-2.222-.606c-1.27.028-2.536.594-3.504 1.415-3.645 2.886-5.805 7.082-8.227 10.949-4.277 7.172-8.789 14.687-15.941 19.347-3.36 2.371-7.762 2.63-11 5.172-4.43 3.34-7.442 8.078-11.074 12.184-.829.988-2.11 1.383-3.227 1.918C21.578 60.93 10.738 65.336 0 69.98c9.09 7.032 18.777 13.29 28.05 20.079 2.544-.504 5.098-1.547 7.72-1.082 4.16 1.3 6.597 5.285 8.503 8.93 3.875 7.94 6.676 16.323 9.813 24.57 5.246-.375 9.969-3.079 14.027-6.258 7.809-6.324 13.758-14.5 20.305-22.047 3.14-3.3 6.34-7.23 11.05-8.149 4.762-1.152 9.864.555 13.395 3.836 4.957 4.43 9.344 9.551 15.137 12.942-.777-3.836-2.645-7.278-4.035-10.899zM42.96 79.012c-4.57 2.703-9.426 4.93-14.176 7.289-7.457-4.996-14.723-10.29-22.05-15.465 9.878-4.328 19.91-8.348 29.917-12.387 4.746 3.703 9.637 7.223 14.383 10.926-2.23 3.563-4.914 6.871-8.074 9.637zm10.168-12.414C48.414 63.058 43.64 59.609 39 55.977c2.977-4.055 6.238-7.977 10.14-11.172 2.587-1.657 5.743-2.117 8.426-3.61 6.368-3.18 10.711-9.011 14.86-14.582-5.317 13.805-10.992 27.664-19.297 39.985zm0 0"/></svg>
